!!!COM:	Janacek
!!!OTL:	133_Jan-16/12/15-21
**kern	**kern	**dynam
*part1	*part1	*part1
*staff2	*staff1	*S
*I"Piano	*	*
*I'Pno.	*	*
*clefF4	*clefG2	*
*k[f#c#g#d#]	*k[f#c#g#d#]	*
*E:	*E:	*
*M2/4	*M2/4	*
=1	=1	=1
*^	*	*
8E-XL	4ryy	2b-X	p
8G-XJ	.	.	.
8G-L	[4G-X	.	.
[8e-XJ	.	.	.
=2	=2	=2	=2
2e-]	2G-]	8e-XL	.
.	.	8b-XJ	.
.	.	8ee-XL	.
.	.	8eee-XJ	.
*v	*v	*	*
=3||	=3||	=3||
*k[]	*k[]	*
*C:	*C:	*
*^	*	*
8E-XL	4ryy	10cc-XL	p
.	.	10ee-X	.
8c-XJ	.	.	.
.	.	10ee-	.
8c-L	[4c-X	.	.
.	.	[10eee-X	.
[8gnJ	.	.	.
.	.	10eee-J	.
=4	=4	=4	=4
2g]	2c-]	(8fnL	.
.	.	8d-XJ	.
.	.	4e-X)	.
*v	*v	*	*
=5	=5	=5
8E-XL	10cc-XL	p
.	10ee-X	.
8c-XJ	.	.
.	10ee-	.
8c-L	.	.
.	[10eee-X	.
8e-XJ	.	.
.	10eee-J	.
=6	=6	=6
8AA-XL	10dd-XL	p
.	10ff-X	.
8F-XJ	.	.
.	10ff-	.
8F-L	.	.
.	[10aa-X	.
8c-XJ	.	.
.	[10aa-J	.
=7	=7	=7
(8B-XL	2ff 2aa-	.
8G-XJ	.	.
4A-X)	.	.
==	==	==
*-	*-	*-
!!!system-decoration: {(s1,s2)}
!!!ONB: Converted from MusicXML on 2019/06/05
